X:2
T:Polska i A efter John-Erik Mattson, Rtan
A:Digerberget, Rtan, s. Jmtland
O:Sweden
Z:Lennart Sohlman, lta, Sweden
M:3/4
L:1/8
Q:1/4=150
K:A
A>c e>a gf|ed (3c(ec) A2|((3cdc) B2 (E/G/B/G/)|A2 A>c e2|\
A>c e>a gf|ed (3c(ec) A2|((3cdc) B2 (E/G/B/G/)|[A2A2][A4A4]::\
AB/c/ d2 f>uf|{fg}fe/d/ c3(A|B>)c d>e f>g|(3a(ba) [e3e3]z/e|\
{ef}ed/c/ d2 f>uf|{fg}fe/d/ c3(A|B>)c d>e f>g|a2 [A4a4]:|\
T:Andrastmma\
E>A c>f e>d|cB (3A(cA) E2|A2 G2 B2|E2 E>A c2|\
E>A c>f e>d|cB (3A(cA) E2|A2 G2 ((3EDB,)|[C2E2][C4E4]::\
EG/A/ B2 d>d|dc/B/ A3 A|E>A B>c d>e|(3f(ed) c3 c|\
{cd}cB/A/ B2 d>d|dc/B/ A3 A|E2 G>A B>d|[c2e2][c4e4]:|
